src/assets/icons/settings/bag.svg

<?xml version="1.0" encoding="UTF-8"?>
<svg width="24px" height="24px" viewBox="0 0 24 24" version="1.1" xmlns="http://www.w3.org/2000/svg" xmlns:xlink="http://www.w3.org/1999/xlink">
    <title>形状结合</title>
    <g id="扩展程序" stroke="none" stroke-width="1" fill="none" fill-rule="evenodd">
        <g id="设置" transform="translate(-40.000000, -754.000000)" fill="#6E7585" fill-rule="nonzero">
            <g id="编组-6备份-8" transform="translate(20.000000, 514.000000)">
                <g id="编组-4备份-28" transform="translate(20.000000, 224.000000)">
                    <g id="形状结合-2" transform="translate(0.000000, 16.000000)">
                        <path d="M19,2 C20.6568542,2 22,3.34314575 22,5 L22,19 C22,20.6568542 20.6568542,22 19,22 L5,22 C3.34314575,22 2,20.6568542 2,19 L2,5 C2,3.34314575 3.34314575,2 5,2 L19,2 Z M20,11 L13.7556172,13.3416435 C12.6236915,13.7661157 11.3763085,13.7661157 10.2443828,13.3416435 L10.2443828,13.3416435 L4,11 L4,19 C4,19.5522847 4.44771525,20 5,20 L5,20 L19,20 C19.5522847,20 20,19.5522847 20,19 L20,19 L20,11 Z M19,4 L5,4 C4.44771525,4 4,4.44771525 4,5 L4,5 L4,9 L10.9466297,11.6049861 C11.6257851,11.8596694 12.3742149,11.8596694 13.0533703,11.6049861 L13.0533703,11.6049861 L20,9 L20,5 C20,4.44771525 19.5522847,4 19,4 L19,4 Z" id="形状结合备份-2"></path>
                    </g>
                </g>
            </g>
        </g>
    </g>
</svg>

<svg width="24" height="24" xmlns="http://www.w3.org/2000/svg"><path d="M19 2a3 3 0 0 1 3 3v14a3 3 0 0 1-3 3H5a3 3 0 0 1-3-3V5a3 3 0 0 1 3-3h14zm1 9-6.244 2.342a5 5 0 0 1-3.512 0L4 11v8a1 1 0 0 0 1 1h14a1 1 0 0 0 1-1v-8zm-1-7H5a1 1 0 0 0-1 1v4l6.947 2.605a3 3 0 0 0 2.106 0L20 9V5a1 1 0 0 0-1-1z" fill="#6e7585" fill-rule="nonzero"/></svg>
